X: 1421
T: N`ideyim Sahn-ı Çemen Seyrini
C: Sadullah Ağa
O: Turkey
F: http://compmusic.upf.edu/node/140
N: hicaz-humayun--yuruksemai--yuruksemai--nideyim_sahn_i--sadullah_aga
N: makam= hicaz-humayun
N: form= yuruksemai
N: usul= yuruksemai = 6/8
M: 6/8
L: 1/16
K: C _7/8B ^c  
Q: 1/4=105
%%MIDI tuningsystem comma53
d8 d4d2{e}c2 d6z2  | e2d2{e}d2c2 d4e4 d2e2d2c2  | \
w:  Ah  ni de *  *  yim   |  sah *  *  *  *  nı  çe men   | 
B4c4 c4c2d2 d3cB2A2  | 
w:  *  sey ri ni  *  câ  | 
A8 B2c2B4 c6z2  | A4B4 c4d2e2 dc=B2c2d2  | \
w:  nâ  |  nâ *  *  *  *  nım   | 
c4d12 z8  | d8 d4d2e2 d3cB4  | 
w:  yok    |  Ah  bir  ya *  nım  | 
c4{d}c2d2 c2B2{c}B2A2 B8  | z4G4 G4A4 A4{B}A2B2  | \
w:  ca  *  *  *  sa *  *  lı *  nır   |  ser vi  hı râ  | 
G8 A8 B8  | A4B4 c4d4 c2B4A2  | 
w:  mâ  |  mâ *  *  *  nım   | 
A16 z8  | =c22_1/4B2  | d12d2c2 _1/4B2^A2B4  | \
w:  yok    |  Yâr  yâr   |   | 
e2d2d2c2 c2_1/4B2{c}B4 ^A2B2=c2B2  | 
w:  kur *  ba *  nın_ *  *  o lam   | 
_1/4B16 z8  | =c22_1/4B2  | _1/4B2d12c2 B2^A2B4  | \
w:  yâr    |  Dost   |  dost   | 
e2d2{e}d2c2 c2B2{c}B2A2 ABc4BA  | 
w:  hay *  *  ra *  nın_ *  *  o *  lam   | 
A16 z8  | G4d4 d4d2c2 d8  | c2d2e6f2e2d2 c8  | \
w:  dost    |  Yel  lel  li  ye le lâ   |  lâ   | 
B2c2d8{e}d2c2 B8  | 
w:  lâ   | 
A2B2c6d2c2B2 A8  | e4e2d2 e2f2e2d2 dc=B2c2d2  | \
w:  lâ   |  öm rüm  *  ye *  le  *  lâ   | 
c4d12 z8  | 
w:  li    | 
G4d4 d4d2c2 d8  | c2d2e6f2e2d2 c8  | \
w:  Yel  lel  li  ye le lâ   |  lâ   | 
B2c2d8{e}d2c2 B8  | A2B2c6d2c2B2 A8  | 
w:  lâ   |  lâ   | 
e4e2d2 e2f2e2d2 dc=B2c2d2  | c4d12 z8  | \
w:  öm rüm  *  ye *  le  *  lâ   |  li    | 
d8 d4d2e2 d3cB4  | 
w:  Ah  bir  ya *  nım  | 
c4{d}c2d2 c2B2{c}B2A2 B8  | z4G4 G4A4 A4{B}A2B2  | \
w:  ca  *  *  *  sa *  *  lı *  nır   |  ser vi  hı râ  | 
G8 A8 B8  | A4B4 c4d4 c2B4A2  | 
w:  mâ  |  mâ *  *  *  nım   | 
A16 z8  | |


